assets/2023/icons/folderMigrations.svg

<!-- Copyright 2000-2023 JetBrains s.r.o. and contributors. Use of this source code is governed by the Apache 2.0 license. -->
<svg width="16" height="16" viewBox="0 0 16 16" fill="none" xmlns="http://www.w3.org/2000/svg">
<path d="M2.63333 2C1.73127 2 1 2.83574 1 3.86667V12.1333C1 13.1643 1.73127 14 2.63333 14H8V10C8 8.89543 8.89543 8 10 8H15V6C15 4.89543 14.1046 4 13 4L8.46667 4L6.84336 2.30775C6.65477 2.11115 6.39413 2 6.1217 2H2.63333Z" fill="#EBECF0"/>
<path d="M2.63333 3L6.1217 3L8.04022 5H13C13.5523 5 14 5.44771 14 6V8H15V6C15 4.89543 14.1046 4 13 4L8.46667 4L6.84336 2.30775C6.65477 2.11115 6.39413 2 6.1217 2H2.63333C1.73127 2 1 2.83574 1 3.86667V12.1333C1 13.1643 1.73127 14 2.63333 14H8.04022V13H2.63333C2.40481 13 2 12.7416 2 12.1333V3.86667C2 3.25841 2.40481 3 2.63333 3Z" fill="#6C707E"/>
<path fill-rule="evenodd" clip-rule="evenodd" d="M10 8.99997C9.44772 8.99997 9 9.44769 9 9.99997L9.00001 15C9.00001 15.5523 9.44772 16 10 16L15 16C15.5523 16 16 15.5523 16 15L16 9.99998C16 9.44769 15.5523 8.99998 15 8.99998L10 8.99997ZM10 11L10 9.99998H12L12 11H10ZM10 12L10 15H12L12 12H10ZM13 15H15L15 12H13L13 15ZM15 11L15 9.99997H13L13 11H15Z" fill="#3574F0"/>
</svg>

<svg xmlns="http://www.w3.org/2000/svg" width="16" height="16" fill="none" viewBox="0 0 16 16"><path fill="#EBECF0" d="M2.633 2C1.731 2 1 2.836 1 3.867v8.266C1 13.164 1.731 14 2.633 14H8v-4a2 2 0 0 1 2-2h5V6a2 2 0 0 0-2-2H8.467L6.843 2.308A1 1 0 0 0 6.122 2z"/><path fill="#6C707E" d="M2.633 3h3.489L8.04 5H13a1 1 0 0 1 1 1v2h1V6a2 2 0 0 0-2-2H8.467L6.843 2.308A1 1 0 0 0 6.122 2H2.633C1.731 2 1 2.836 1 3.867v8.266C1 13.164 1.731 14 2.633 14H8.04v-1H2.633C2.405 13 2 12.742 2 12.133V3.867C2 3.258 2.405 3 2.633 3"/><path fill="#3574F0" fill-rule="evenodd" d="M10 9a1 1 0 0 0-1 1v5a1 1 0 0 0 1 1h5a1 1 0 0 0 1-1v-5a1 1 0 0 0-1-1zm0 2v-1h2v1zm0 1v3h2v-3zm3 3h2v-3h-2zm2-4v-1h-2v1z" clip-rule="evenodd"/></svg>
